X: 26
T: Out On The Ocean
Z: UPipes & harp
S: https://thesession.org/tunes/108#setting48307
R: jig
M: 6/8
L: 1/8
K: Gmaj
|:D2 B BAG|BdB ABA|GED G2 A|(3Bcd B AGE|
D2 B BAG|BdB A (3AAA|GED G2 A|1BGF G2 E:|2BGF GBd||
efe edB|ege edB|ded dBA|ded dBA|
G2 A B2 d|(3efg e dBA|GED G2 A|BGF GB/c/d|
efe edB|efe edB|ded def|gfe dBA|
G2 A B2 d|(3efg e dBA|GED G2 A|BGF G3||

